src/icons/5x3.svg

<svg xmlns="http://www.w3.org/2000/svg" width="512" height="512" viewBox="0 0 512 512">
    <path d="M327.4 367.2H416v42.3h-88.6v-42.3zm-115.7 0h88.6v42.3h-88.6v-42.3zm-115.7 0h88.6v42.3H96v-42.3zm231.4-69.4H416v42.3h-88.6v-42.3zm-115.7 0h88.6v42.3h-88.6v-42.3zm-115.7 0h88.6v42.3H96v-42.3zm231.4-69.5H416v42.3h-88.6v-42.3zm-115.7 0h88.6v42.3h-88.6v-42.3zm-115.7 0h88.6v42.3H96v-42.3zm231.4-69.4H416v42.3h-88.6v-42.3zm-115.7 0h88.6v42.3h-88.6v-42.3zm-115.7 0h88.6v42.3H96v-42.3zm231.4-69.4H416v42.3h-88.6V89.5zm-115.7 0h88.6v42.3h-88.6V89.5zM96 89.5h88.6v42.3H96V89.5z"/>
</svg>

<?xml version="1.0" encoding="UTF-8"?>
<svg width="512px" height="512px" viewBox="0 0 512 512" version="1.1" xmlns="http://www.w3.org/2000/svg" xmlns:xlink="http://www.w3.org/1999/xlink">
    <!-- Generator: Sketch 62 (91390) - https://sketch.com -->
    <title>5x3</title>
    <desc>Created with Sketch.</desc>
    <g id="5x3" stroke="none" stroke-width="1" fill="none" fill-rule="evenodd">
        <path d="M327.4,367.2 L416,367.2 L416,409.5 L327.4,409.5 L327.4,367.2 Z M211.7,367.2 L300.3,367.2 L300.3,409.5 L211.7,409.5 L211.7,367.2 L211.7,367.2 Z M96,367.2 L184.6,367.2 L184.6,409.5 L96,409.5 L96,367.2 Z M327.4,297.8 L416,297.8 L416,340.1 L327.4,340.1 L327.4,297.8 L327.4,297.8 Z M211.7,297.8 L300.3,297.8 L300.3,340.1 L211.7,340.1 L211.7,297.8 L211.7,297.8 Z M96,297.8 L184.6,297.8 L184.6,340.1 L96,340.1 L96,297.8 L96,297.8 Z M327.4,228.3 L416,228.3 L416,270.6 L327.4,270.6 L327.4,228.3 L327.4,228.3 Z M211.7,228.3 L300.3,228.3 L300.3,270.6 L211.7,270.6 L211.7,228.3 L211.7,228.3 Z M96,228.3 L184.6,228.3 L184.6,270.6 L96,270.6 L96,228.3 L96,228.3 Z M327.4,158.9 L416,158.9 L416,201.2 L327.4,201.2 L327.4,158.9 L327.4,158.9 Z M211.7,158.9 L300.3,158.9 L300.3,201.2 L211.7,201.2 L211.7,158.9 L211.7,158.9 Z M96,158.9 L184.6,158.9 L184.6,201.2 L96,201.2 L96,158.9 L96,158.9 Z M327.4,89.5 L416,89.5 L416,131.8 L327.4,131.8 L327.4,89.5 Z M211.7,89.5 L300.3,89.5 L300.3,131.8 L211.7,131.8 L211.7,89.5 L211.7,89.5 Z M96,89.5 L184.6,89.5 L184.6,131.8 L96,131.8 L96,89.5 Z" id="Shape" fill="#000000" fill-rule="nonzero"></path>
    </g>
</svg>
